X: 344
T: Mrs Farquhar's Strathspey
C: by Wm Christie
R: strathspey
B: William Christie's "A Collection of Strathspeys, Reels, Hornpipes, Waltzes, &c." p.34 #4 (plus 2 staffs on p.35)
S: https://digital.nls.uk/special-collections-of-printed-music/archive/120545033
Z: 2022 John Chambers <jc:trillian.mit.edu>
M: C
L: 1/8
K: F	% ending on Bb
%%slurgraces yes
%%graceslurs yes
% = = = = = = = = = =
V: 1 staves=2
G |\
F>cA<c {c}B2AG | F>cA>c {Bc}d>BG>B | A<F c<A {c}B2AG | F<A C<F [D2B,2] [DB,] :| e | f>cA<f ~d2Bg | Tf>cAc f>g {fg}a>g |
f>cA<f ~d2Bg | f<a c<f ~d2dg | (f/e/).d/c/ Af ~d2Bg | .f.a.c.f .d.f.B.d | c<AF<c {c}B2AG | F<A C<F [D2B,2][DB,] |]
% = = = = = = = = = =
% Voice 2 preserves the staff layout in the book.
V: 2 clef=bass middle=d
z |\
F2f2 B2c2 | A2F2 B2G2 | F2f2 B2c2 | F2A2 [B2B,2][BB,] :| z | f2f2 B2b2 | a2f2 [f2a2]f2 |
f2f2 B2B2 | f2a2 b2B2 | A2f2 B2b2 | f2a2 b2B2 | f2A2 B2c2 | F2A2 B2[BB,] |]
% = = = = = = = = = =
